svg/u1f399.svg

<svg viewBox="0 0 128 128" xmlns="http://www.w3.org/2000/svg">
  <g>
    <path d="M103.21,74.61c-0.15-6.22-12.52-49.4-15.37-56.09c-3.4-7.99-7.1-15.2-23.84-14.46 C49.29,4.7,36.49,6.94,27.51,21.94c-6.85,11.44,12.2,66.52,17.32,71.38c1.88,1.79,5.97,2.62,10.78,2.92 c2.3,6.91,5.54,16.37,7.03,19.38c0,0,18.21-1.56,22.18-2.12c6.69-0.95,7.18-6.9,5.67-12.39c-0.62-2.25-1.59-5.07-2.51-7.63 c7.23-1.84,11.08-4.61,13.09-8.23C102.86,82.03,103.3,78.18,103.21,74.61z" fill="#B9E4EA"/>
    <path d="M89.1,84.63c-9.42,1-13.64-0.06-16.51-2.52c-1.06-0.91-1.69-2.22-1.52-3.6 c0.56-4.61,1.03-7.35-1.04-14.78l-9.55-36.51c-3.54-15.4-16.27-17.13-26.65-11.14l0,0c-7.08,4.09-10.51,11.35-8.49,20.32 l12.58,48.11c1.57,6.01,4.11,9.25,7.54,10.5c0,0,0,0,0,0c1.08,0.75,2.64,1.27,4.52,1.63c1.22,3.24,2.93,7.75,4.43,11.55 c2.13,5.38,4.22,7.42,8.23,7.42c4.01,0,8.38-2.98,6.84-9.02c-0.76-3.01-1.72-6.42-2.62-9.52c4.96-0.29,9.38-0.74,11.63-0.85 c18.21-0.86,23.83-9.04,24.58-17.08C103.07,79.16,99.61,83.51,89.1,84.63z" fill="#82AEC0"/>
    <ellipse cx="61.6" cy="106.61" rx="4.25" ry="5.62" fill="#2F7889" transform="matrix(0.9829 -0.1839 0.1839 0.9829 -18.5555 13.1485)"/>
    <g>
      <path d="M35.43,35.63c1.04-0.62,1.37-1.97,0.75-3.01c-0.62-1.04-1.97-1.37-3.01-0.75l-7.47,4.49l1.13,4.44 L35.43,35.63z" fill="#424242"/>
      <path d="M38.96,43.18c-0.62-1.04-1.97-1.37-3.01-0.75l-7.56,4.54l1.13,4.44l8.69-5.22 C39.24,45.57,39.58,44.22,38.96,43.18z" fill="#424242"/>
      <path d="M41.74,53.75c-0.62-1.04-1.97-1.37-3.01-0.75l-7.64,4.59l1.13,4.44l8.77-5.27 C42.02,56.13,42.36,54.78,41.74,53.75z" fill="#424242"/>
      <path d="M44.52,64.31c-0.62-1.04-1.97-1.37-3.01-0.75l-7.72,4.64l1.13,4.44l8.85-5.32 C44.81,66.7,45.14,65.35,44.52,64.31z" fill="#424242"/>
      <path d="M47.3,74.87c-0.62-1.04-1.97-1.37-3.01-0.75l-7.8,4.69l1.13,4.44l8.94-5.37 C47.59,77.26,47.92,75.91,47.3,74.87z" fill="#424242"/>
    </g>
    <g>
      <path d="M57.13,19.11c-4.46,1.58-13.72,7.49-13.72,7.49c-1.04,0.62-1.37,1.97-0.75,3.01 c0.41,0.68,1.14,1.06,1.88,1.06c0.38,0,0.77-0.1,1.13-0.31c0,0,8.73-6.01,13.48-7.03c3.59-0.77,11.95-0.96,11.95-0.96 l-1.18-4.26C69.91,18.1,59.23,18.36,57.13,19.11z" fill="#2F7889"/>
      <path d="M60.33,30.1c-4.49,1.5-13.85,7.23-13.85,7.23c-1.05,0.6-1.41,1.94-0.8,2.99 c0.4,0.69,1.12,1.08,1.86,1.1c0.38,0.01,0.78-0.09,1.13-0.29c0,0,8.84-5.84,13.6-6.78c3.6-0.71,11.97-0.93,11.97-0.93l-1.1-4.28 C73.14,29.14,62.45,29.39,60.33,30.1z" fill="#2F7889"/>
      <path d="M63.54,41.09c-4.52,1.42-13.98,6.97-13.98,6.97c-1.06,0.59-1.44,1.92-0.86,2.98 c0.39,0.7,1.1,1.1,1.84,1.13c0.38,0.01,0.78-0.07,1.14-0.27c0,0,8.94-5.68,13.72-6.52c3.62-0.64,11.99-0.9,11.99-0.9l-1.02-4.3 C76.37,40.18,65.67,40.42,63.54,41.09z" fill="#2F7889"/>
      <path d="M66.75,52.08c-4.54,1.33-14.11,6.71-14.11,6.71c-1.07,0.57-1.48,1.89-0.91,2.96 c0.37,0.71,1.08,1.12,1.82,1.17c0.38,0.02,0.78-0.06,1.14-0.25c0,0,9.04-5.51,13.84-6.27c3.63-0.57,12.02-0.87,12.02-0.87 l-0.94-4.32C79.6,51.21,68.89,51.45,66.75,52.08z" fill="#2F7889"/>
      <path d="M69.96,63.07c-4.57,1.25-14.24,6.46-14.24,6.46c-1.08,0.55-1.52,1.86-0.97,2.95 c0.36,0.71,1.06,1.14,1.8,1.2c0.38,0.03,0.78-0.04,1.15-0.23c0,0,9.15-5.35,13.96-6.02c3.64-0.51,12.04-0.84,12.04-0.84 l-0.87-4.34C82.83,62.25,72.11,62.48,69.96,63.07z" fill="#2F7889"/>
    </g>
    <g>
      <path d="M87.67,18.1l-6.95,0l1.17,4.26l7.33,0C88.87,21.15,87.83,18.64,87.67,18.1z" fill="#2F7889"/>
      <path d="M85.05,33.42l7.69,0.15c-0.43-1.49-0.87-2.88-1.28-4.23l-7.57-0.2L85.05,33.42z" fill="#2F7889"/>
      <path d="M88.22,44.47l7.67-0.08c-0.4-1.44-0.8-2.8-1.2-4.21h-7.63L88.22,44.47z" fill="#2F7889"/>
      <path d="M91.38,55.52h7.56c-0.37-1.41-0.77-2.85-1.16-4.31h-7.56L91.38,55.52z" fill="#2F7889"/>
      <path d="M94.54,66.58h7.18c-0.32-1.34-0.66-2.79-1.05-4.33h-7.29L94.54,66.58z" fill="#2F7889"/>
    </g>
    <path d="M60.87,13.59c-1.89-1.91-2.05-4.09-5.89-6.04c-4.26-2.17-9.08-0.69-9.08-0.69s7.88-3.09,11.97-1.73 c3.47,1.15,5.53,3.87,6.37,6.1c0.54,1.43,0.18,2.4-0.89,2.97C63.02,14.38,61.87,14.61,60.87,13.59z" fill="#2F7889"/>
    <path d="M67.77,9.18c-2.41-5.14-7.21-4.95-7.21-4.95s5.02-0.69,7.22,0.31c2.49,1.13,3.69,2.47,4.7,5.26 c0.41,1.14,0.62,2.97-1.39,3.21C69.34,13.23,68.42,10.56,67.77,9.18z" fill="#2F7889"/>
    <path d="M75.69,8.9c-2.11-4.6-6.61-4.78-6.61-4.78s8.43-0.42,10.98,5.9c0.45,1.12,0.35,2.51-0.85,2.62 C77.41,12.81,76.33,10.28,75.69,8.9z" fill="#2F7889"/>
    <g>
      <path d="M66.76,97.12c2.44-1.25,4.41-3.27,6.07-5.46c1.86-2.44,3.08-4.15,3.95-7.09 c0.66-2.24,0.86-5.98,0.62-8.31c-0.27-2.58,0-3.94,1.95-4.22c1.2-0.17,2.67,0.73,3.05,3.9c0.43,3.6,0.2,5.87-1.2,9.74 c-1.24,3.42-3.3,5.9-6.05,8.25C71.42,97.12,67.12,96.93,66.76,97.12z" fill="#2F7889"/>
      <path d="M78.49,96.23c0,0,10.92-6.4,9.47-18.58c-0.26-2.19-1.27-6.14,1.43-6.47 c1.2-0.15,3.1,1.04,3.26,6.04c0.33,10.48-5.01,15.18-7.24,16.65C82.28,95.91,78.49,96.23,78.49,96.23z" fill="#2F7889"/>
      <path d="M88.46,94.84c0,0,5.08-3.16,7.02-8.44c0.98-2.65,1.5-4.89,1.36-9.03 c-0.08-2.2-1.68-6.19,1.05-6.22c2.25-0.02,3.01,3.63,3.15,5.68c0.28,4.04-1.22,7.93-3.58,11.62 C94.28,93.4,88.46,94.84,88.46,94.84z" fill="#2F7889"/>
    </g>
    <path d="M69.04,124l-1.72-8.77l8.06-0.74c0,0,2.14-2.67,2-4.96c-0.14-2.29-1.15-5.44-1.15-5.44l8.3-1 c0,0,1.29,4.41,1.01,6.45c-0.29,2.15-2.25,4.16-2.25,4.16L85.77,124H69.04z" fill="#82AEC0"/>
    <g>
      <path d="M42.66,29.61c0.41,0.68,1.14,1.06,1.88,1.06c0.38,0,0.77-0.1,1.13-0.31c0,0,8.73-6.01,13.48-7.03 c0.04-0.01,0.1-0.02,0.14-0.03c-0.63-1.58-1.38-2.96-2.23-4.16c-4.49,1.62-13.65,7.46-13.65,7.46 C42.37,27.22,42.03,28.57,42.66,29.61z" fill="#424242"/>
      <path d="M46.48,37.33c-1.05,0.6-1.41,1.94-0.8,2.99c0.4,0.69,1.12,1.08,1.86,1.1 c0.38,0.01,0.78-0.09,1.13-0.29c0,0,8.83-5.84,13.6-6.78c0.03-0.01,0.06-0.01,0.08-0.02l-1.16-4.45 c-0.36,0.07-0.65,0.14-0.86,0.21C55.84,31.6,46.48,37.33,46.48,37.33z" fill="#424242"/>
      <path d="M49.56,48.06c-1.06,0.59-1.44,1.92-0.86,2.98c0.39,0.7,1.1,1.1,1.84,1.13 c0.38,0.01,0.78-0.07,1.14-0.27c0,0,8.76-5.56,13.57-6.49l-1.16-4.45c-0.22,0.04-0.4,0.09-0.54,0.13 C59.02,42.5,49.56,48.06,49.56,48.06z" fill="#424242"/>
      <path d="M52.64,58.79c-1.07,0.57-1.48,1.89-0.91,2.96c0.37,0.71,1.08,1.12,1.82,1.17 c0.38,0.02,0.78-0.06,1.14-0.25c0,0,8.58-5.22,13.46-6.19l-1.17-4.46c-0.08,0.02-0.16,0.04-0.23,0.06 C62.21,53.41,52.64,58.79,52.64,58.79z" fill="#424242"/>
      <path d="M69.87,63.09c-4.6,1.29-14.15,6.43-14.15,6.43c-1.08,0.55-1.52,1.86-0.97,2.95 c0.36,0.71,1.06,1.14,1.8,1.2c0.38,0.03,0.78-0.04,1.15-0.23c0,0,8.03-4.69,13-5.84c-0.19-1.29-0.41-2.58-0.65-3.87L69.87,63.09 z" fill="#424242"/>
      <g>
        <path d="M56.09,18.55c-3.53-4.73-5.28-3.76-7.68-4.84c-2.12-0.96-0.98-2.17,0-2.68 c1.41-0.74,4.08-0.81,5.87,0.19c1.68,0.94,3.5,1.82,4.26,6.03C58.86,18.96,56.85,19.56,56.09,18.55z" fill="#FFFFFF"/>
        <path d="M64.1,25.24c-0.67-1.99-2.21-2.6-4.09-2.02c-0.87,0.27-1.01,0.91-0.44,2.7 c1.04,3.27,1.35,4.25,3.17,3.75C64.29,29.25,64.85,27.46,64.1,25.24z" fill="#FFFFFF"/>
        <path d="M63.65,34.11c-1.27,0.32-1.59,0.96-0.93,3.05c0.78,2.46,2.2,2.11,2.82,1.91 c0.95-0.31,1.78-1.39,1.54-3C66.94,35.19,66.41,33.41,63.65,34.11z" fill="#FFFFFF"/>
      </g>
    </g>
    <g>
      <path d="M66.76,97.12c0.03-0.02,0.1-0.03,0.18-0.04c-0.04,0-0.08,0-0.12,0.01 C66.8,97.09,66.79,97.11,66.76,97.12z" fill="#2F7889"/>
      <path d="M81.21,85.68c0.09-0.25,0.16-0.47,0.24-0.71c-1.82-0.08-3.32-0.3-4.6-0.65 c-0.02,0.08-0.04,0.17-0.06,0.25c-0.87,2.95-2.09,4.65-3.95,7.09c-1.65,2.17-3.6,4.17-6.01,5.43c0.04,0,0.08,0,0.12-0.01 c0.9-0.13,4.79-0.23,8.21-3.15C77.91,91.58,79.97,89.1,81.21,85.68z" fill="#424242"/>
    </g>
    <path d="M91.91,84.22c-0.88,0.16-1.8,0.3-2.8,0.41c-0.6,0.06-1.17,0.12-1.73,0.16 c-2.22,7.53-8.89,11.44-8.89,11.44s3.79-0.32,6.92-2.37C87.06,92.77,90.41,89.9,91.91,84.22z" fill="#424242"/>
    <g>
      <path d="M88.46,94.84c0,0,0.75-0.19,1.84-0.65c-0.53,0.18-1.07,0.36-1.64,0.52 C88.53,94.79,88.46,94.84,88.46,94.84z" fill="#2F7889"/>
      <path d="M97.45,88.45c1.52-2.38,2.68-4.84,3.24-7.38c-1.02,0.64-2.41,1.34-4.23,1.97 c-0.24,1.16-0.56,2.22-0.98,3.35c-1.72,4.67-5.89,7.67-6.82,8.31c0.57-0.16,1.11-0.34,1.64-0.52 C92.28,93.37,95.41,91.64,97.45,88.45z" fill="#424242"/>
    </g>
  </g>
</svg>

<svg viewBox="0 0 128 128" xmlns="http://www.w3.org/2000/svg">
  <defs/>
  <path d="M103.21,74.61 C103.06,68.39 90.69,25.21 87.84,18.52 C84.44,10.53 80.74,3.32 64,4.06 C49.29,4.7 36.49,6.94 27.51,21.94 C20.66,33.38 39.71,88.46 44.83,93.32 C46.71,95.11 50.8,95.94 55.61,96.24 C57.91,103.15 61.15,112.61 62.64,115.62 C62.64,115.62 80.85,114.06 84.82,113.5 C91.51,112.55 92,106.6 90.49,101.11 C89.87,98.86 88.9,96.04 87.98,93.48 C95.21,91.64 99.06,88.87 101.07,85.25 C102.86,82.03 103.3,78.18 103.21,74.61 Z" fill="#B9E4EA"/>
  <path d="M89.1,84.63 C79.68,85.63 75.46,84.57 72.59,82.11 C71.53,81.2 70.9,79.89 71.07,78.51 C71.63,73.9 72.1,71.16 70.03,63.73 L60.48,27.22 C56.94,11.82 44.21,10.09 33.83,16.08 L33.83,16.08 C26.75,20.17 23.32,27.43 25.34,36.4 L37.92,84.51 C39.49,90.52 42.03,93.76 45.46,95.01 C45.46,95.01 45.46,95.01 45.46,95.01 C46.54,95.76 48.1,96.28 49.98,96.64 C51.2,99.88 52.91,104.39 54.41,108.19 C56.54,113.57 58.63,115.61 62.64,115.61 C66.65,115.61 71.02,112.63 69.48,106.59 C68.72,103.58 67.76,100.17 66.86,97.07 C71.82,96.78 76.24,96.33 78.49,96.22 C96.7,95.36 102.32,87.18 103.07,79.14 C103.07,79.16 99.61,83.51 89.1,84.63 Z" fill="#82AEC0"/>
  <path d="M65.774,105.826 C66.345,108.876 64.937,111.699 62.63,112.131 C60.323,112.563 57.99,110.44 57.419,107.389 C56.849,104.338 58.256,101.515 60.563,101.083 C62.87,100.652 65.203,102.775 65.774,105.826 Z" fill="#2F7889"/>
  <path d="M35.43,35.63 C36.47,35.01 36.8,33.66 36.18,32.62 C35.56,31.58 34.21,31.25 33.17,31.87 L25.7,36.36 L26.83,40.8 L35.43,35.63 Z" fill="#424242"/>
  <path d="M38.96,43.18 C38.34,42.14 36.99,41.81 35.95,42.43 L28.39,46.97 L29.52,51.41 L38.21,46.19 C39.24,45.57 39.58,44.22 38.96,43.18 Z" fill="#424242"/>
  <path d="M41.74,53.75 C41.12,52.71 39.77,52.38 38.73,53 L31.09,57.59 L32.22,62.03 L40.99,56.76 C42.02,56.13 42.36,54.78 41.74,53.75 Z" fill="#424242"/>
  <path d="M44.52,64.31 C43.9,63.27 42.55,62.94 41.51,63.56 L33.79,68.2 L34.92,72.64 L43.77,67.32 C44.81,66.7 45.14,65.35 44.52,64.31 Z" fill="#424242"/>
  <path d="M47.3,74.87 C46.68,73.83 45.33,73.5 44.29,74.12 L36.49,78.81 L37.62,83.25 L46.56,77.88 C47.59,77.26 47.92,75.91 47.3,74.87 Z" fill="#424242"/>
  <path d="M57.13,19.11 C52.67,20.69 43.41,26.6 43.41,26.6 C42.37,27.22 42.04,28.57 42.66,29.61 C43.07,30.29 43.8,30.67 44.54,30.67 C44.92,30.67 45.31,30.57 45.67,30.36 C45.67,30.36 54.4,24.35 59.15,23.33 C62.74,22.56 71.1,22.37 71.1,22.37 L69.92,18.11 C69.91,18.1 59.23,18.36 57.13,19.11 Z" fill="#2F7889"/>
  <path d="M60.33,30.1 C55.84,31.6 46.48,37.33 46.48,37.33 C45.43,37.93 45.07,39.27 45.68,40.32 C46.08,41.01 46.8,41.4 47.54,41.42 C47.92,41.43 48.32,41.33 48.67,41.13 C48.67,41.13 57.51,35.29 62.27,34.35 C65.87,33.64 74.24,33.42 74.24,33.42 L73.14,29.14 C73.14,29.14 62.45,29.39 60.33,30.1 Z" fill="#2F7889"/>
  <path d="M63.54,41.09 C59.02,42.51 49.56,48.06 49.56,48.06 C48.5,48.65 48.12,49.98 48.7,51.04 C49.09,51.74 49.8,52.14 50.54,52.17 C50.92,52.18 51.32,52.1 51.68,51.9 C51.68,51.9 60.62,46.22 65.4,45.38 C69.02,44.74 77.39,44.48 77.39,44.48 L76.37,40.18 C76.37,40.18 65.67,40.42 63.54,41.09 Z" fill="#2F7889"/>
  <path d="M66.75,52.08 C62.21,53.41 52.64,58.79 52.64,58.79 C51.57,59.36 51.16,60.68 51.73,61.75 C52.1,62.46 52.81,62.87 53.55,62.92 C53.93,62.94 54.33,62.86 54.69,62.67 C54.69,62.67 63.73,57.16 68.53,56.4 C72.16,55.83 80.55,55.53 80.55,55.53 L79.61,51.21 C79.6,51.21 68.89,51.45 66.75,52.08 Z" fill="#2F7889"/>
  <path d="M69.96,63.07 C65.39,64.32 55.72,69.53 55.72,69.53 C54.64,70.08 54.2,71.39 54.75,72.48 C55.11,73.19 55.81,73.62 56.55,73.68 C56.93,73.71 57.33,73.64 57.7,73.45 C57.7,73.45 66.85,68.1 71.66,67.43 C75.3,66.92 83.7,66.59 83.7,66.59 L82.83,62.25 C82.83,62.25 72.11,62.48 69.96,63.07 Z" fill="#2F7889"/>
  <path d="M87.67,18.1 L80.72,18.1 L81.89,22.36 L89.22,22.36 C88.87,21.15 87.83,18.64 87.67,18.1 Z" fill="#2F7889"/>
  <path d="M85.05,33.42 L92.74,33.57 C92.31,32.08 91.87,30.69 91.46,29.34 L83.89,29.14 L85.05,33.42 Z" fill="#2F7889"/>
  <path d="M88.22,44.47 L95.89,44.39 C95.49,42.95 95.09,41.59 94.69,40.18 L87.06,40.18 L88.22,44.47 Z" fill="#2F7889"/>
  <path d="M91.38,55.52 L98.94,55.52 C98.57,54.11 98.17,52.67 97.78,51.21 L90.22,51.21 L91.38,55.52 Z" fill="#2F7889"/>
  <path d="M94.54,66.58 L101.72,66.58 C101.4,65.24 101.06,63.79 100.67,62.25 L93.38,62.25 L94.54,66.58 Z" fill="#2F7889"/>
  <path d="M60.87,13.59 C58.98,11.68 58.82,9.5 54.98,7.55 C50.72,5.38 45.9,6.86 45.9,6.86 C45.9,6.86 53.78,3.77 57.87,5.13 C61.34,6.28 63.4,9 64.24,11.23 C64.78,12.66 64.42,13.63 63.35,14.2 C63.02,14.38 61.87,14.61 60.87,13.59 Z" fill="#2F7889"/>
  <path d="M67.77,9.18 C65.36,4.04 60.56,4.23 60.56,4.23 C60.56,4.23 65.58,3.54 67.78,4.54 C70.27,5.67 71.47,7.01 72.48,9.8 C72.89,10.94 73.1,12.77 71.09,13.01 C69.34,13.23 68.42,10.56 67.77,9.18 Z" fill="#2F7889"/>
  <path d="M75.69,8.9 C73.58,4.3 69.08,4.12 69.08,4.12 C69.08,4.12 77.51,3.7 80.06,10.02 C80.51,11.14 80.41,12.53 79.21,12.64 C77.41,12.81 76.33,10.28 75.69,8.9 Z" fill="#2F7889"/>
  <path d="M66.76,97.12 C69.2,95.87 71.17,93.85 72.83,91.66 C74.69,89.22 75.91,87.51 76.78,84.57 C77.44,82.33 77.64,78.59 77.4,76.26 C77.13,73.68 77.4,72.32 79.35,72.04 C80.55,71.87 82.02,72.77 82.4,75.94 C82.83,79.54 82.6,81.81 81.2,85.68 C79.96,89.1 77.9,91.58 75.15,93.93 C71.42,97.12 67.12,96.93 66.76,97.12 Z" fill="#2F7889"/>
  <path d="M78.49,96.23 C78.49,96.23 89.41,89.83 87.96,77.65 C87.7,75.46 86.69,71.51 89.39,71.18 C90.59,71.03 92.49,72.22 92.65,77.22 C92.98,87.7 87.64,92.4 85.41,93.87 C82.28,95.91 78.49,96.23 78.49,96.23 Z" fill="#2F7889"/>
  <path d="M88.46,94.84 C88.46,94.84 93.54,91.68 95.48,86.4 C96.46,83.75 96.98,81.51 96.84,77.37 C96.76,75.17 95.16,71.18 97.89,71.15 C100.14,71.13 100.9,74.78 101.04,76.83 C101.32,80.87 99.82,84.76 97.46,88.45 C94.28,93.4 88.46,94.84 88.46,94.84 Z" fill="#2F7889"/>
  <path d="M69.04,124 L67.32,115.23 L75.38,114.49 C75.38,114.49 77.52,111.82 77.38,109.53 C77.24,107.24 76.23,104.09 76.23,104.09 L84.53,103.09 C84.53,103.09 85.82,107.5 85.54,109.54 C85.25,111.69 83.29,113.7 83.29,113.7 L85.77,124 L69.04,124 Z" fill="#82AEC0"/>
  <path d="M42.66,29.61 C43.07,30.29 43.8,30.67 44.54,30.67 C44.92,30.67 45.31,30.57 45.67,30.36 C45.67,30.36 54.4,24.35 59.15,23.33 C59.19,23.32 59.25,23.31 59.29,23.3 C58.66,21.72 57.91,20.34 57.06,19.14 C52.57,20.76 43.41,26.6 43.41,26.6 C42.37,27.22 42.03,28.57 42.66,29.61 Z" fill="#424242"/>
  <path d="M46.48,37.33 C45.43,37.93 45.07,39.27 45.68,40.32 C46.08,41.01 46.8,41.4 47.54,41.42 C47.92,41.43 48.32,41.33 48.67,41.13 C48.67,41.13 57.5,35.29 62.27,34.35 C62.3,34.34 62.33,34.34 62.35,34.33 L61.19,29.88 C60.83,29.95 60.54,30.02 60.33,30.09 C55.84,31.6 46.48,37.33 46.48,37.33 Z" fill="#424242"/>
  <path d="M49.56,48.06 C48.5,48.65 48.12,49.98 48.7,51.04 C49.09,51.74 49.8,52.14 50.54,52.17 C50.92,52.18 51.32,52.1 51.68,51.9 C51.68,51.9 60.44,46.34 65.25,45.41 L64.09,40.96 C63.87,41 63.69,41.05 63.55,41.09 C59.02,42.5 49.56,48.06 49.56,48.06 Z" fill="#424242"/>
  <path d="M52.64,58.79 C51.57,59.36 51.16,60.68 51.73,61.75 C52.1,62.46 52.81,62.87 53.55,62.92 C53.93,62.94 54.33,62.86 54.69,62.67 C54.69,62.67 63.27,57.45 68.15,56.48 L66.98,52.02 C66.9,52.04 66.82,52.06 66.75,52.08 C62.21,53.41 52.64,58.79 52.64,58.79 Z" fill="#424242"/>
  <path d="M69.87,63.09 C65.27,64.38 55.72,69.52 55.72,69.52 C54.64,70.07 54.2,71.38 54.75,72.47 C55.11,73.18 55.81,73.61 56.55,73.67 C56.93,73.7 57.33,73.63 57.7,73.44 C57.7,73.44 65.73,68.75 70.7,67.6 C70.51,66.31 70.29,65.02 70.05,63.73 L69.87,63.09 Z" fill="#424242"/>
  <path d="M56.09,18.55 C52.56,13.82 50.81,14.79 48.41,13.71 C46.29,12.75 47.43,11.54 48.41,11.03 C49.82,10.29 52.49,10.22 54.28,11.22 C55.96,12.16 57.78,13.04 58.54,17.25 C58.86,18.96 56.85,19.56 56.09,18.55 Z" fill="#FFFFFF"/>
  <path d="M64.1,25.24 C63.43,23.25 61.89,22.64 60.01,23.22 C59.14,23.49 59,24.13 59.57,25.92 C60.61,29.19 60.92,30.17 62.74,29.67 C64.29,29.25 64.85,27.46 64.1,25.24 Z" fill="#FFFFFF"/>
  <path d="M63.65,34.11 C62.38,34.43 62.06,35.07 62.72,37.16 C63.5,39.62 64.92,39.27 65.54,39.07 C66.49,38.76 67.32,37.68 67.08,36.07 C66.94,35.19 66.41,33.41 63.65,34.11 Z" fill="#FFFFFF"/>
  <path d="M66.76,97.12 C66.79,97.1 66.86,97.09 66.94,97.08 C66.9,97.08 66.86,97.08 66.82,97.09 C66.8,97.09 66.79,97.11 66.76,97.12 Z" fill="#2F7889"/>
  <path d="M81.21,85.68 C81.3,85.43 81.37,85.21 81.45,84.97 C79.63,84.89 78.13,84.67 76.85,84.32 C76.83,84.4 76.81,84.49 76.79,84.57 C75.92,87.52 74.7,89.22 72.84,91.66 C71.19,93.83 69.24,95.83 66.83,97.09 C66.87,97.09 66.91,97.09 66.95,97.08 C67.85,96.95 71.74,96.85 75.16,93.93 C77.91,91.58 79.97,89.1 81.21,85.68 Z" fill="#424242"/>
  <path d="M91.91,84.22 C91.03,84.38 90.11,84.52 89.11,84.63 C88.51,84.69 87.94,84.75 87.38,84.79 C85.16,92.32 78.49,96.23 78.49,96.23 C78.49,96.23 82.28,95.91 85.41,93.86 C87.06,92.77 90.41,89.9 91.91,84.22 Z" fill="#424242"/>
  <path d="M88.46,94.84 C88.46,94.84 89.21,94.65 90.3,94.19 C89.77,94.37 89.23,94.55 88.66,94.71 C88.53,94.79 88.46,94.84 88.46,94.84 Z" fill="#2F7889"/>
  <path d="M97.45,88.45 C98.97,86.07 100.13,83.61 100.69,81.07 C99.67,81.71 98.28,82.41 96.46,83.04 C96.22,84.2 95.9,85.26 95.48,86.39 C93.76,91.06 89.59,94.06 88.66,94.7 C89.23,94.54 89.77,94.36 90.3,94.18 C92.28,93.37 95.41,91.64 97.45,88.45 Z" fill="#424242"/>
</svg>
